packages/calcite-ui-icons/icons/group-template-24.svg

<?xml version="1.0" encoding="UTF-8"?><svg id="icons" xmlns="http://www.w3.org/2000/svg" viewBox="0 0 24 24"><defs><style>.cls-1{fill:none;}</style></defs><path d="M13,11h-4v-1h4v1ZM13,15h-4v1h4v-1ZM8,14v4h-4v-4h4ZM7,15h-2v2h2v-2ZM6.94958,5c-.06476.31897-.19171.61487-.36536.87714l1.45129,1.45129-.70709.70709-1.45129-1.45129c-.26227.17371-.55817.3006-.87714.36536v2.05042h-1v-2.05042c-.31897-.06476-.61487-.19165-.87714-.36536l-1.45129,1.45129-.70709-.70709,1.45129-1.45129c-.17365-.26227-.3006-.55817-.36536-.87714H0v-1h2.05042c.06476-.31897.19171-.61487.36536-.87714L.96448,1.67157l.70709-.70709,1.45129,1.45123c.26227-.17365.55817-.30054.87714-.3653V0h1v2.05042c.31897.06476.61487.19165.87714.3653l1.45129-1.45123.70709.70709-1.45129,1.45129c.17365.26227.3006.55817.36536.87714h2.05042v1h-2.05042ZM6,4.5c0-.8269-.6731-1.5-1.5-1.5s-1.5.6731-1.5,1.5.6731,1.5,1.5,1.5,1.5-.6731,1.5-1.5ZM15,2.7887v16.2113h1V2.57971c0-.86884-.71088-1.57971-1.57971-1.57971h-5.42029v1h5.2113c.43561,0,.7887.35309.7887.7887ZM13,20H2.7887c-.43561,0-.7887-.35315-.7887-.7887v-10.2113h-1v10.42261c0,.87115.70624,1.57739,1.57739,1.57739h10.42261v-1ZM24,20v3h-3v-3h3ZM23,21h-1v1h1v-1ZM6,9v1h1v2h-2v-2h-1v3h4v-4h-2ZM10,5v1h3v-1h-3ZM21.70703,16l-4.70703,4.70703v2.29297h-3v-3h2.29297l4.70703-4.70703v-2.29297h3v3h-2.29297ZM22,15h1v-1h-1v1ZM16,21h-1v1h1v-1Z"/><rect class="cls-1" width="24" height="24"/></svg>

<svg xmlns="http://www.w3.org/2000/svg" viewBox="0 0 24 24"><path d="M13 11H9v-1h4zm0 4H9v1h4zm-5-1v4H4v-4zm-1 1H5v2h2zM6.95 5a2.5 2.5 0 0 1-.366.877l1.452 1.451-.708.708-1.45-1.452A2.5 2.5 0 0 1 5 6.95V9H4V6.95a2.5 2.5 0 0 1-.877-.366L1.672 8.036l-.708-.708 1.452-1.45A2.5 2.5 0 0 1 2.05 5H0V4h2.05a2.5 2.5 0 0 1 .366-.877L.964 1.672l.708-.708 1.45 1.452c.263-.174.559-.3.878-.366V0h1v2.05c.319.065.615.192.877.366L7.328.964l.708.708-1.452 1.45c.174.263.3.559.366.878H9v1zM6 4.5C6 3.673 5.327 3 4.5 3S3 3.673 3 4.5 3.673 6 4.5 6 6 5.327 6 4.5m9-1.711V19h1V2.58C16 1.71 15.29 1 14.42 1H9v1h5.211c.436 0 .789.353.789.789M13 20H2.789A.79.79 0 0 1 2 19.211V9H1v10.423C1 20.293 1.706 21 2.577 21H13zm11 0v3h-3v-3zm-1 1h-1v1h1zM6 9v1h1v2H5v-2H4v3h4V9zm4-4v1h3V5zm11.707 11L17 20.707V23h-3v-3h2.293L21 15.293V13h3v3zM22 15h1v-1h-1zm-6 6h-1v1h1z"/><path d="M0 0h24v24H0z" style="fill:none"/></svg>
